img/mail-s.svg

<svg width="32" height="32" viewBox="0 0 32 32" xmlns="http://www.w3.org/2000/svg" fill="#fff"><path d="M15.996 15.457l16.004-7.539v-3.918h-32v3.906zm.008 4.422l-16.004-7.559v15.68h32v-15.656z"/></svg>

<?xml version="1.0" encoding="utf-8"?> <!-- Generator: IcoMoon.io --> <!DOCTYPE svg PUBLIC "-//W3C//DTD SVG 1.1//EN" "http://www.w3.org/Graphics/SVG/1.1/DTD/svg11.dtd"> <svg width="32" height="32" viewBox="0 0 32 32" xmlns="http://www.w3.org/2000/svg" xmlns:xlink="http://www.w3.org/1999/xlink" fill="#ffffff"><g><path d="M 15.996,15.457L 32,7.918L 32,4L0,4L0,7.906 zM 16.004,19.879L0,12.32L0,28L 32,28L 32,12.344 z"></path></g></svg>
